svgs/sharp-solid/window-flip.svg

<svg xmlns="http://www.w3.org/2000/svg" viewBox="0 0 512 512"><!--! Font Awesome Pro 6.6.0 by @fontawesome - https://fontawesome.com License - https://fontawesome.com/license (Commercial License) Copyright 2024 Fonticons, Inc. --><path d="M0 32l512 0 0 448L0 480 0 32zM384 96l0 64 64 0 0-64-64 0zm-32 0l-64 0 0 64 64 0 0-64zM192 96l0 64 64 0 0-64-64 0z"/></svg>

<svg xmlns="http://www.w3.org/2000/svg" viewBox="0 0 512 512"><!--! Font Awesome Pro 6.4.2 by @fontawesome - https://fontawesome.com License - https://fontawesome.com/license (Commercial License) Copyright 2023 Fonticons, Inc. --><path d="M0 32H512V480H0V32zM384 96v64h64V96H384zm-32 0H288v64h64V96zM192 96v64h64V96H192z"/></svg>
